X:669
T: Songlang dangbin
N: C2195
O: China, Hunan Liuyang
S: I, 531]
R: Xiaodiao, Shisong]
M: 3/4
L: 1/16
K: D
B2A2B2d2e3f | f2f2d2edB4 | d2deF2A2B4 | d2B2A4F4
B2A2B2d2e3f | f2f2d2edB4 | d2deF2A2B4 | d2B2A4F4
d4B4 | A4B4 | d2deF2A2B4 | d2B2A4F4

